packages/core/src/browser/icons/preview-bright.svg

<svg viewBox="0 0 16 16" xmlns="http://www.w3.org/2000/svg"><path d="m16 0v16h-16v-16z" fill="#f6f6f6" opacity="0"/><path d="m1 2v12h6.1a1.469 1.469 0 0 1 .341-.561l1.559-1.559v-6.88h5v2.351a3.515 3.515 0 0 1 1 .707v-6.058zm6 11h-5v-8h5z" fill="#424242"/><path d="m12.5 8a2.5 2.5 0 0 0 -2.084 3.877l-2.27 2.269a.5.5 0 0 0 .708.708l2.269-2.27a2.5 2.5 0 1 0 1.377-4.584zm0 4a1.5 1.5 0 1 1 1.5-1.5 1.5 1.5 0 0 1 -1.5 1.5z" fill="#00539c"/></svg>

<!--Copyright (c) Microsoft Corporation. All rights reserved.-->
<!--Copyright (C) 2019 TypeFox and others.-->
<!--Licensed under the MIT License. See License.txt in the project root for license information.-->
<svg xmlns="http://www.w3.org/2000/svg" viewBox="0 0 16 16"><defs><style>.icon-canvas-transparent,.icon-vs-out{fill:#f6f6f6;}.icon-canvas-transparent{opacity:0;}.icon-vs-bg{fill:#424242;}.icon-vs-action-blue{fill:#00539c;}</style></defs><title>PreviewInRightPanel_16x</title><g id="canvas"><path class="icon-canvas-transparent" d="M16,0V16H0V0Z"/></g><g id="outline" style="display: none;"><path class="icon-vs-out" d="M16,1V15H10.121l-.56.561a1.5,1.5,0,0,1-2.122,0A1.469,1.469,0,0,1,7.1,15H0V1Z" style="display: none;"/></g><g id="iconBg"><path class="icon-vs-bg" d="M1,2V14H7.1a1.469,1.469,0,0,1,.341-.561L9,11.88V5h5V7.351a3.515,3.515,0,0,1,1,.707V2ZM7,13H2V5H7Z"/></g><g id="colorAction"><path class="icon-vs-action-blue" d="M12.5,8a2.5,2.5,0,0,0-2.084,3.877l-2.27,2.269a.5.5,0,0,0,.708.708l2.269-2.27A2.5,2.5,0,1,0,12.5,8Zm0,4A1.5,1.5,0,1,1,14,10.5,1.5,1.5,0,0,1,12.5,12Z"/></g></svg>
